dotfiles/dunst/icons/volume/volume-off.svg

<svg t="1695474669191" class="icon" viewBox="0 0 1024 1024" version="1.1" xmlns="http://www.w3.org/2000/svg" p-id="6032" width="200" height="200"><path d="M512 170.666667L422.826667 259.84 512 349.013333M182.186667 128L128 182.186667 329.813333 384H128v256h170.666667l213.333333 213.333333v-287.146666l181.333333 181.76c-28.586667 21.76-60.586667 39.68-96 49.92v88.32c58.88-13.653333 112.213333-40.533333 157.013334-77.226667L841.813333 896 896 841.813333l-384-384M810.666667 512c0 40.106667-8.533333 77.653333-23.04 112.64l64.426666 64.426667A380.416 380.416 0 0 0 896 512c0-182.613333-128-335.36-298.666667-374.186667v87.893334c123.306667 36.693333 213.333333 151.04 213.333334 286.293333m-106.666667 0c0-75.52-42.666667-140.373333-106.666667-171.946667v94.293334l104.533334 104.533333c2.133333-8.533333 2.133333-17.92 2.133333-26.88z" fill="#1296db" p-id="6033"></path></svg>

<?xml version="1.0" standalone="no"?><!DOCTYPE svg PUBLIC "-//W3C//DTD SVG 1.1//EN" "http://www.w3.org/Graphics/SVG/1.1/DTD/svg11.dtd"><svg t="1695561685718" class="icon" viewBox="0 0 1024 1024" version="1.1" xmlns="http://www.w3.org/2000/svg" p-id="19878" xmlns:xlink="http://www.w3.org/1999/xlink" width="200" height="200"><path d="M512 170.666667 422.826667 259.84 512 349.013333M182.186667 128 128 182.186667 329.813333 384 128 384 128 640 298.666667 640 512 853.333333 512 566.186667 693.333333 747.946667C664.746667 769.706667 632.746667 787.626667 597.333333 797.866667L597.333333 886.186667C656.213333 872.533333 709.546667 845.653333 754.346667 808.96L841.813333 896 896 841.813333 512 457.813333M810.666667 512C810.666667 552.106667 802.133333 589.653333 787.626667 624.64L852.053333 689.066667C879.786667 636.16 896 576 896 512 896 329.386667 768 176.64 597.333333 137.813333L597.333333 225.706667C720.64 262.4 810.666667 376.746667 810.666667 512M704 512C704 436.48 661.333333 371.626667 597.333333 340.053333L597.333333 434.346667 701.866667 538.88C704 530.346667 704 520.96 704 512Z" p-id="19879" fill="#A8FFCA"></path></svg>
